dist/images/footer/twitter.svg

<svg width="18" height="18" viewBox="0 0 18 18" fill="none" xmlns="http://www.w3.org/2000/svg">
<g clip-path="url(#clip0_15_231)">
<path d="M18 3.41887C17.3306 3.7125 16.6174 3.90712 15.8737 4.00162C16.6388 3.54487 17.2226 2.82712 17.4971 1.962C16.7839 2.38725 15.9964 2.68763 15.1571 2.85525C14.4799 2.13413 13.5146 1.6875 12.4616 1.6875C10.4186 1.6875 8.77387 3.34575 8.77387 5.37863C8.77387 5.67113 8.79862 5.95237 8.85938 6.22012C5.7915 6.0705 3.07687 4.60013 1.25325 2.36025C0.934875 2.91263 0.748125 3.54488 0.748125 4.2255C0.748125 5.5035 1.40625 6.63637 2.38725 7.29225C1.79437 7.281 1.21275 7.10888 0.72 6.83775C0.72 6.849 0.72 6.86363 0.72 6.87825C0.72 8.6715 1.99912 10.161 3.6765 10.5041C3.37612 10.5863 3.04875 10.6256 2.709 10.6256C2.47275 10.6256 2.23425 10.6121 2.01038 10.5626C2.4885 12.024 3.84525 13.0984 5.4585 13.1332C4.203 14.1154 2.60888 14.7071 0.883125 14.7071C0.5805 14.7071 0.29025 14.6936 0 14.6565C1.63462 15.7106 3.57188 16.3125 5.661 16.3125C12.4515 16.3125 16.164 10.6875 16.164 5.81175C16.164 5.64862 16.1584 5.49113 16.1505 5.33475C16.8829 4.815 17.4982 4.16587 18 3.41887Z" fill="white"/>
</g>
<defs>
<clipPath id="clip0_15_231">
<rect width="18" height="18" fill="white"/>
</clipPath>
</defs>
</svg>

<svg width="18" height="18" fill="none" xmlns="http://www.w3.org/2000/svg"><g clip-path="url(#clip0_15_231)"><path d="M18 3.419a7.693 7.693 0 01-2.126.583 3.67 3.67 0 001.623-2.04c-.713.425-1.5.726-2.34.893a3.689 3.689 0 00-6.383 2.523c0 .293.025.574.085.842a10.445 10.445 0 01-7.606-3.86 3.715 3.715 0 00-.505 1.866c0 1.277.658 2.41 1.64 3.066A3.644 3.644 0 01.72 6.838v.04a3.707 3.707 0 002.957 3.626 3.68 3.68 0 01-.968.122 3.3 3.3 0 01-.699-.063 3.725 3.725 0 003.449 2.57 7.414 7.414 0 01-4.576 1.574c-.302 0-.593-.013-.883-.05a10.389 10.389 0 005.661 1.655c6.79 0 10.503-5.625 10.503-10.5 0-.163-.006-.32-.014-.477A7.362 7.362 0 0018 3.419z" fill="#fff"/></g><defs><clipPath id="clip0_15_231"><path fill="#fff" d="M0 0h18v18H0z"/></clipPath></defs></svg>
